svgs/light/diagram-previous.svg

<svg xmlns="http://www.w3.org/2000/svg" viewBox="0 0 512 512"><!--! Font Awesome Pro 6.4.2 by @fontawesome - https://fontawesome.com License - https://fontawesome.com/license (Commercial License) Copyright 2023 Fonticons, Inc. --><path d="M480 352c0-17.7-14.3-32-32-32l-176 0H240L64 320c-17.7 0-32 14.3-32 32l0 64c0 17.7 14.3 32 32 32l384 0c17.7 0 32-14.3 32-32V352zM272 288H448c35.3 0 64 28.7 64 64v64c0 35.3-28.7 64-64 64H64c-35.3 0-64-28.7-64-64V352c0-35.3 28.7-64 64-64H240V182.6l-36.7 36.7c-6.2 6.2-16.4 6.2-22.6 0s-6.2-16.4 0-22.6l64-64c6.2-6.2 16.4-6.2 22.6 0l64 64c6.2 6.2 6.2 16.4 0 22.6s-16.4 6.2-22.6 0L272 182.6V288zM448 32c35.3 0 64 28.7 64 64v64c0 35.3-28.7 64-64 64H400c-8.8 0-16-7.2-16-16s7.2-16 16-16h48c17.7 0 32-14.3 32-32V96c0-17.7-14.3-32-32-32L64 64C46.3 64 32 78.3 32 96l0 64c0 17.7 14.3 32 32 32h48c8.8 0 16 7.2 16 16s-7.2 16-16 16H64c-35.3 0-64-28.7-64-64V96C0 60.7 28.7 32 64 32l384 0z"/></svg>

<svg xmlns="http://www.w3.org/2000/svg" viewBox="0 0 512 512"><!--! Font Awesome Pro 6.1.1 by @fontawesome - https://fontawesome.com License - https://fontawesome.com/license (Commercial License) Copyright 2022 Fonticons, Inc. --><path d="M272 288H448C483.3 288 512 316.7 512 352V416C512 451.3 483.3 480 448 480H64C28.65 480 0 451.3 0 416V352C0 316.7 28.65 288 64 288H240V182.6L203.3 219.3C197.1 225.6 186.9 225.6 180.7 219.3C174.4 213.1 174.4 202.9 180.7 196.7L244.7 132.7C250.9 126.4 261.1 126.4 267.3 132.7L331.3 196.7C337.6 202.9 337.6 213.1 331.3 219.3C325.1 225.6 314.9 225.6 308.7 219.3L272 182.6L272 288zM448 320H64C46.33 320 32 334.3 32 352V416C32 433.7 46.33 448 64 448H448C465.7 448 480 433.7 480 416V352C480 334.3 465.7 320 448 320zM448 32C483.3 32 512 60.65 512 96V160C512 195.3 483.3 224 448 224H400C391.2 224 384 216.8 384 208C384 199.2 391.2 192 400 192H448C465.7 192 480 177.7 480 160V96C480 78.33 465.7 64 448 64H64C46.33 64 32 78.33 32 96V160C32 177.7 46.33 192 64 192H112C120.8 192 128 199.2 128 208C128 216.8 120.8 224 112 224H64C28.65 224 0 195.3 0 160V96C0 60.65 28.65 32 64 32H448z"/></svg>
